common/icons/svgs/cc_nd.svg

<svg xmlns="http://www.w3.org/2000/svg" viewbox="0 0 24 24"><path class="icon__shape" fill-rule="nonzero" d="M8.2 9.5H16v1.9H8.2V9.5zm0 3.5H16v1.9H8.2V13z"/><path class="icon__shape" fill-rule="nonzero" d="M19.6 4.4c-2-2.1-4.8-3.2-7.7-3.1-2.9-.1-5.6 1-7.6 3.1-1 1-1.8 2.2-2.4 3.6a10.6 10.6 0 0 0 0 8.2c.5 1.3 1.3 2.5 2.4 3.5 1 1 2.2 1.8 3.5 2.3 1.3.5 2.7.8 4.1.8 2.9 0 5.7-1.1 7.7-3.2 2-2 3.1-4.7 3.1-7.6 0-2.8-1.1-5.6-3.1-7.6zM5.7 18.2C4 16.6 3.1 14.3 3.1 12c0-2.3.9-4.6 2.6-6.2 1.6-1.7 3.9-2.6 6.2-2.6h.9c2 .2 3.9 1.1 5.3 2.5.8.8 1.5 1.8 1.9 2.8.4 1.1.7 2.2.7 3.4.1 2.3-.9 4.6-2.5 6.2-.8.8-1.8 1.5-2.9 2-1.1.4-2.2.7-3.3.7-1.1 0-2.3-.2-3.4-.7-.4-.2-.9-.4-1.2-.7-.7-.3-1.2-.7-1.7-1.2z"/></svg>

<svg xmlns="http://www.w3.org/2000/svg" width="24" height="24" viewBox="0 0 24 24">
  <g fill="none" fill-rule="evenodd" transform="translate(-312 -66)">
    <rect width="504" height="450" fill="#FFF"/>
    <g transform="translate(312 66)">
      <rect width="24" height="24"/>
      <path fill="#000" fill-rule="nonzero" d="M8.2,9.5 L16,9.5 L16,11.4 L8.2,11.4 L8.2,9.5 Z M8.2,13 L16,13 L16,14.9 L8.2,14.9 L8.2,13 Z"/>
      <path fill="#000" fill-rule="nonzero" d="M19.6,4.4 C17.6,2.3 14.8,1.2 11.9,1.3 C9,1.2 6.3,2.3 4.3,4.4 C3.3,5.4 2.5,6.6 1.9,8 C0.799957374,10.622654 0.799957374,13.577346 1.9,16.2 C2.4,17.5 3.2,18.7 4.3,19.7 C5.3,20.7 6.5,21.5 7.8,22 C9.1,22.5 10.5,22.8 11.9,22.8 C14.8,22.8 17.6,21.7 19.6,19.6 C21.6,17.6 22.7,14.9 22.7,12 C22.7,9.2 21.6,6.4 19.6,4.4 Z M5.7,18.2 C4,16.6 3.1,14.3 3.1,12 C3.1,9.7 4,7.4 5.7,5.8 C7.3,4.1 9.6,3.2 11.9,3.2 L12.8,3.2 C14.8,3.4 16.7,4.3 18.1,5.7 C18.9,6.5 19.6,7.5 20,8.5 C20.4,9.6 20.7,10.7 20.7,11.9 C20.8,14.2 19.8,16.5 18.2,18.1 C17.4,18.9 16.4,19.6 15.3,20.1 C14.2,20.5 13.1,20.8 12,20.8 C10.9,20.8 9.7,20.6 8.6,20.1 C8.2,19.9 7.7,19.7 7.4,19.4 C6.7,19.1 6.2,18.7 5.7,18.2 L5.7,18.2 Z"/>
    </g>
  </g>
</svg>
